public/images/icons/icon-questionmark.svg

<svg width="15" height="18" viewBox="0 0 15 18" fill="none" xmlns="http://www.w3.org/2000/svg">
<path d="M8 17.3333L7.79167 14.8333H7.58333C5.61111 14.8333 3.9375 14.1458 2.5625 12.7708C1.1875 11.3958 0.5 9.72218 0.5 7.74996C0.5 5.77774 1.1875 4.10413 2.5625 2.72913C3.9375 1.35413 5.61111 0.666626 7.58333 0.666626C8.56944 0.666626 9.48972 0.850515 10.3442 1.21829C11.1986 1.58607 11.9486 2.09301 12.5942 2.73913C13.2397 3.38524 13.7464 4.13524 14.1142 4.98913C14.4819 5.84301 14.6661 6.76329 14.6667 7.74996C14.6667 8.79163 14.4967 9.79163 14.1567 10.75C13.8167 11.7083 13.3511 12.5972 12.76 13.4166C12.1689 14.2361 11.4675 14.9791 10.6558 15.6458C9.84417 16.3125 8.95889 16.875 8 17.3333ZM7.5625 12.3125C7.79861 12.3125 8 12.2291 8.16667 12.0625C8.33333 11.8958 8.41667 11.6944 8.41667 11.4583C8.41667 11.2222 8.33333 11.0208 8.16667 10.8541C8 10.6875 7.79861 10.6041 7.5625 10.6041C7.32639 10.6041 7.125 10.6875 6.95833 10.8541C6.79167 11.0208 6.70833 11.2222 6.70833 11.4583C6.70833 11.6944 6.79167 11.8958 6.95833 12.0625C7.125 12.2291 7.32639 12.3125 7.5625 12.3125ZM6.95833 9.66663H8.20833C8.20833 9.24996 8.25 8.95829 8.33333 8.79163C8.41667 8.62496 8.68056 8.3194 9.125 7.87496C9.375 7.62496 9.58333 7.35413 9.75 7.06246C9.91667 6.77079 10 6.45829 10 6.12496C10 5.41663 9.76056 4.88524 9.28167 4.53079C8.80278 4.17635 8.23667 3.9994 7.58333 3.99996C6.97222 3.99996 6.45833 4.17024 6.04167 4.51079C5.625 4.85135 5.33333 5.2644 5.16667 5.74996L6.33333 6.20829C6.40278 5.97218 6.53472 5.73968 6.72917 5.51079C6.92361 5.2819 7.20833 5.16718 7.58333 5.16663C7.95833 5.16607 8.23972 5.27024 8.4275 5.47913C8.61528 5.68801 8.70889 5.91718 8.70833 6.16663C8.70833 6.40274 8.63889 6.61468 8.5 6.80246C8.36111 6.99024 8.19444 7.18107 8 7.37496C7.51389 7.79163 7.21889 8.12163 7.115 8.36496C7.01111 8.60829 6.95889 9.04218 6.95833 9.66663Z" fill="#9DB2CE"/>
</svg>

<svg xmlns="http://www.w3.org/2000/svg" width="15" height="18" fill="none"><path fill="#9DB2CE" d="m8 17.333-.208-2.5h-.209c-1.972 0-3.646-.687-5.02-2.062C1.187 11.396.5 9.722.5 7.75s.688-3.646 2.063-5.02C3.937 1.353 5.61.666 7.582.666c.986 0 1.907.184 2.761.551a7.14 7.14 0 0 1 3.77 3.771c.368.854.552 1.774.553 2.761 0 1.042-.17 2.042-.51 3-.34.958-.806 1.847-1.397 2.667a11.855 11.855 0 0 1-2.104 2.229A12.997 12.997 0 0 1 8 17.333Zm-.438-5.02a.823.823 0 0 0 .605-.25.823.823 0 0 0 .25-.605.823.823 0 0 0-.25-.604.823.823 0 0 0-.604-.25.823.823 0 0 0-.605.25.823.823 0 0 0-.25.604c0 .236.084.438.25.604.167.167.368.25.604.25Zm-.604-2.646h1.25c0-.417.042-.709.125-.875.084-.167.348-.473.792-.917.25-.25.458-.52.625-.813.167-.291.25-.604.25-.937 0-.708-.24-1.24-.718-1.594-.48-.355-1.045-.532-1.699-.531-.61 0-1.125.17-1.541.51-.417.341-.709.754-.875 1.24l1.166.458c.07-.236.202-.468.396-.697.195-.23.48-.344.854-.344.375 0 .657.103.845.312.187.209.28.438.28.688 0 .236-.07.448-.208.635a5.09 5.09 0 0 1-.5.573c-.486.417-.781.747-.885.99-.104.243-.156.677-.157 1.302Z"/></svg>
